material/.icons/material/fishbowl-outline.svg

<svg xmlns="http://www.w3.org/2000/svg" viewBox="0 0 24 24"><path d="M19.11 5H21V3H3v2h1.89A9.93 9.93 0 002 12c0 3.97 2.31 7.39 5.66 9h8.68A9.973 9.973 0 0022 12c0-2.73-1.11-5.2-2.89-7M6.32 6.41L7.7 5h8.6l1.38 1.41a7.87 7.87 0 011.37 1.84A7.272 7.272 0 0116 7c-2.44 1.71-5.56 1.71-8 0-.94.66-2 1.09-3.05 1.25.36-.67.82-1.29 1.37-1.84M15.85 19h-7.7A7.93 7.93 0 014 12c0-.57.07-1.14.19-1.68A8.74 8.74 0 008 9.33c2.5 1.3 5.5 1.3 8 0 1.2.62 2.5.96 3.81.99.12.54.19 1.11.19 1.68a7.93 7.93 0 01-4.15 7M17 14.5c0 1.38-1.68 2.5-3.75 2.5-1.16 0-2.19-.36-2.92-.84-.66.84-2 .84-3.33.84 1.1 0 1.5-1.12 1.5-2.5S8.1 12 7 12c1.33 0 2.67 0 3.37.91.69-.55 1.72-.91 2.88-.91 2.07 0 3.75 1.12 3.75 2.5z"/></svg>

<?xml version="1.0" encoding="UTF-8"?><!DOCTYPE svg PUBLIC "-//W3C//DTD SVG 1.1//EN" "http://www.w3.org/Graphics/SVG/1.1/DTD/svg11.dtd"><svg xmlns="http://www.w3.org/2000/svg" xmlns:xlink="http://www.w3.org/1999/xlink" version="1.1" id="mdi-fishbowl-outline" width="24" height="24" viewBox="0 0 24 24"><path d="M19.11,5H21V3H3V5H4.89C3.11,6.8 2,9.27 2,12C2,15.97 4.31,19.39 7.66,21H16.34C19.69,19.39 22,15.97 22,12C22,9.27 20.89,6.8 19.11,5M6.32,6.41L7.7,5H16.3L17.68,6.41C18.23,6.96 18.69,7.58 19.05,8.25C18,8.09 16.94,7.66 16,7C13.56,8.71 10.44,8.71 8,7C7.06,7.66 6,8.09 4.95,8.25C5.31,7.58 5.77,6.96 6.32,6.41M15.85,19H8.15C5.58,17.59 4,14.95 4,12C4,11.43 4.07,10.86 4.19,10.32C5.5,10.29 6.8,9.95 8,9.33C10.5,10.63 13.5,10.63 16,9.33C17.2,9.95 18.5,10.29 19.81,10.32C19.93,10.86 20,11.43 20,12C20,14.95 18.42,17.59 15.85,19M17,14.5C17,15.88 15.32,17 13.25,17C12.09,17 11.06,16.64 10.33,16.16C9.67,17 8.33,17 7,17C8.1,17 8.5,15.88 8.5,14.5C8.5,13.12 8.1,12 7,12C8.33,12 9.67,12 10.37,12.91C11.06,12.36 12.09,12 13.25,12C15.32,12 17,13.12 17,14.5Z" /></svg>
